X:4462
T:Mullingar Lee, The
O:england
R:reel
S:Kevin Burke
D:Milestone at the Garden
D:Hugh Gillespie 1937
M:C|
K:Gmix
BG~G2 GFDE|F2AF CFAc|BG~G2 DEFE|1 FAdc BGGA:|2 FAdc BG~G2||
|:~g3d Bcde|~f3c ABcd|1 ~g3d BddB|dgga bga^f:|2 ed~d2 DEFE|FAdc BGGA||


